img/Icon awesome-linkedin-in.svg

<svg height="31.499" viewBox="0 0 31.5 31.499" width="31.5" xmlns="http://www.w3.org/2000/svg"><path d="m7.051 31.5h-6.531v-21.03h6.531zm-3.269-23.9a3.8 3.8 0 1 1 3.782-3.817 3.814 3.814 0 0 1 -3.782 3.817zm27.711 23.9h-6.517v-10.237c0-2.44-.049-5.569-3.4-5.569-3.4 0-3.916 2.651-3.916 5.393v10.413h-6.518v-21.03h6.263v2.869h.095a6.862 6.862 0 0 1 6.179-3.4c6.609 0 7.824 4.352 7.824 10.005v11.556z" fill="#fffefe" transform="translate(0 -.001)"/></svg>

<svg xmlns="http://www.w3.org/2000/svg" width="31.5" height="31.499" viewBox="0 0 31.5 31.499"><defs><style>.a{fill:#fffefe;}</style></defs><path class="a" d="M7.051,31.5H.52V10.47H7.051ZM3.782,7.6A3.8,3.8,0,1,1,7.564,3.783,3.814,3.814,0,0,1,3.782,7.6ZM31.493,31.5H24.976V21.263c0-2.44-.049-5.569-3.4-5.569-3.4,0-3.916,2.651-3.916,5.393V31.5H11.142V10.47h6.263v2.869H17.5a6.862,6.862,0,0,1,6.179-3.4c6.609,0,7.824,4.352,7.824,10.005V31.5Z" transform="translate(0 -0.001)"/></svg>
